groups/alkanes/octyl.svg

<?xml version='1.0' encoding='iso-8859-1'?>
<svg version='1.1' baseProfile='full'
              xmlns='http://www.w3.org/2000/svg'
                      xmlns:rdkit='http://www.rdkit.org/xml'
                      xmlns:xlink='http://www.w3.org/1999/xlink'
                  xml:space='preserve'
width='256px' height='256px' viewBox='0 0 256 256'>
<!-- END OF HEADER -->
<rect style='opacity:1.0;fill:#FFFFFF;stroke:none' width='256.0' height='256.0' x='0.0' y='0.0'> </rect>
<path class='bond-0 atom-0 atom-1' d='M 20.0,127.1 L 44.9,112.8' style='fill:none;fill-rule:evenodd;stroke:#000000;stroke-width:2.0px;stroke-linecap:butt;stroke-linejoin:miter;stroke-opacity:1' />
<path class='bond-1 atom-1 atom-2' d='M 44.9,112.8 L 69.7,127.2' style='fill:none;fill-rule:evenodd;stroke:#000000;stroke-width:2.0px;stroke-linecap:butt;stroke-linejoin:miter;stroke-opacity:1' />
<path class='bond-2 atom-2 atom-3' d='M 69.7,127.2 L 94.6,112.8' style='fill:none;fill-rule:evenodd;stroke:#000000;stroke-width:2.0px;stroke-linecap:butt;stroke-linejoin:miter;stroke-opacity:1' />
<path class='bond-3 atom-3 atom-4' d='M 94.6,112.8 L 119.5,127.2' style='fill:none;fill-rule:evenodd;stroke:#000000;stroke-width:2.0px;stroke-linecap:butt;stroke-linejoin:miter;stroke-opacity:1' />
<path class='bond-4 atom-4 atom-5' d='M 119.5,127.2 L 144.3,112.9' style='fill:none;fill-rule:evenodd;stroke:#000000;stroke-width:2.0px;stroke-linecap:butt;stroke-linejoin:miter;stroke-opacity:1' />
<path class='bond-5 atom-5 atom-6' d='M 144.3,112.9 L 169.2,127.3' style='fill:none;fill-rule:evenodd;stroke:#000000;stroke-width:2.0px;stroke-linecap:butt;stroke-linejoin:miter;stroke-opacity:1' />
<path class='bond-6 atom-6 atom-7' d='M 169.2,127.3 L 194.1,112.9' style='fill:none;fill-rule:evenodd;stroke:#000000;stroke-width:2.0px;stroke-linecap:butt;stroke-linejoin:miter;stroke-opacity:1' />
<path class='bond-7 atom-7 atom-8' d='M 194.1,112.9 L 212.8,123.8' style='fill:none;fill-rule:evenodd;stroke:#000000;stroke-width:2.0px;stroke-linecap:butt;stroke-linejoin:miter;stroke-opacity:1' />
<path d='M 43.6,113.5 L 44.9,112.8 L 46.1,113.5' style='fill:none;stroke:#000000;stroke-width:2.0px;stroke-linecap:butt;stroke-linejoin:miter;stroke-miterlimit:10;stroke-opacity:1;' />
<path d='M 68.5,126.5 L 69.7,127.2 L 71.0,126.5' style='fill:none;stroke:#000000;stroke-width:2.0px;stroke-linecap:butt;stroke-linejoin:miter;stroke-miterlimit:10;stroke-opacity:1;' />
<path d='M 93.3,113.6 L 94.6,112.8 L 95.8,113.6' style='fill:none;stroke:#000000;stroke-width:2.0px;stroke-linecap:butt;stroke-linejoin:miter;stroke-miterlimit:10;stroke-opacity:1;' />
<path d='M 118.2,126.5 L 119.5,127.2 L 120.7,126.5' style='fill:none;stroke:#000000;stroke-width:2.0px;stroke-linecap:butt;stroke-linejoin:miter;stroke-miterlimit:10;stroke-opacity:1;' />
<path d='M 143.1,113.6 L 144.3,112.9 L 145.6,113.6' style='fill:none;stroke:#000000;stroke-width:2.0px;stroke-linecap:butt;stroke-linejoin:miter;stroke-miterlimit:10;stroke-opacity:1;' />
<path d='M 168.0,126.5 L 169.2,127.3 L 170.4,126.5' style='fill:none;stroke:#000000;stroke-width:2.0px;stroke-linecap:butt;stroke-linejoin:miter;stroke-miterlimit:10;stroke-opacity:1;' />
<path d='M 192.8,113.6 L 194.1,112.9 L 195.0,113.5' style='fill:none;stroke:#000000;stroke-width:2.0px;stroke-linecap:butt;stroke-linejoin:miter;stroke-miterlimit:10;stroke-opacity:1;' />
<path class='atom-1' d='M27.1377,139.576 C28.0708,139.038 27.3539,137.794 26.4208,138.332 C25.4877,138.869 24.7708,137.625 25.7039,137.087 C26.637,136.55 25.9201,135.306 24.987,135.843 C24.0539,136.381 23.337,135.137 24.2701,134.599 C25.2033,134.061 24.4864,132.817 23.5533,133.355 C22.6201,133.892 21.9033,132.648 22.8364,132.111 C23.7695,131.573 23.0526,130.329 22.1195,130.866 C21.1864,131.404 20.4695,130.16 21.4026,129.622 C22.3357,129.084 21.6188,127.84 20.6857,128.378 C19.7526,128.916 19.0357,127.671 19.9688,127.134 C20.902,126.596 20.1851,125.352 19.252,125.89 C18.3188,126.427 17.602,125.183 18.5351,124.645 C19.4682,124.108 18.7513,122.863 17.8182,123.401 C16.8851,123.939 16.1682,122.695 17.1013,122.157 C18.0344,121.619 17.3175,120.375 16.3844,120.913 C15.4513,121.45 14.7344,120.206 15.6675,119.668 C16.6006,119.131 15.8838,117.887 14.9507,118.424 C14.0175,118.962 13.3007,117.718 14.2338,117.18 C15.1669,116.642 14.45,115.398 13.5169,115.936 C12.5838,116.473 11.8669,115.229 12.8,114.692' style='fill:none;stroke:#7F7F7F;stroke-width:2.0px;stroke-linecap:butt;stroke-linejoin:miter;stroke-opacity:1' />
<text x='213.8' y='135.9' class='atom-8' style='font-size:17px;font-style:normal;font-weight:normal;fill-opacity:1;stroke:none;font-family:sans-serif;text-anchor:start;fill:#000000' >C</text>
<text x='225.7' y='135.9' class='atom-8' style='font-size:17px;font-style:normal;font-weight:normal;fill-opacity:1;stroke:none;font-family:sans-serif;text-anchor:start;fill:#000000' >H</text>
<text x='237.5' y='142.8' class='atom-8' style='font-size:11px;font-style:normal;font-weight:normal;fill-opacity:1;stroke:none;font-family:sans-serif;text-anchor:start;fill:#000000' >3</text>
</svg>

<svg height="256" viewBox="0 0 256 256" width="256" xmlns="http://www.w3.org/2000/svg"><path d="m0 0h256v256h-256z" fill="#fff"/><g fill="none" stroke-width="2"><path d="m20 127.1 24.9-14.3" stroke="#000"/><path d="m44.9 112.8 24.8 14.4" stroke="#000"/><path d="m69.7 127.2 24.9-14.4" stroke="#000"/><path d="m94.6 112.8 24.9 14.4" stroke="#000"/><path d="m119.5 127.2 24.8-14.3" stroke="#000"/><path d="m144.3 112.9 24.9 14.4" stroke="#000"/><path d="m169.2 127.3 24.9-14.4" stroke="#000"/><path d="m194.1 112.9 18.7 10.9" stroke="#000"/><path d="m43.6 113.5 1.3-.7 1.2.7" stroke="#000" stroke-miterlimit="10"/><path d="m68.5 126.5 1.2.7 1.3-.7" stroke="#000" stroke-miterlimit="10"/><path d="m93.3 113.6 1.3-.8 1.2.8" stroke="#000" stroke-miterlimit="10"/><path d="m118.2 126.5 1.3.7 1.2-.7" stroke="#000" stroke-miterlimit="10"/><path d="m143.1 113.6 1.2-.7 1.3.7" stroke="#000" stroke-miterlimit="10"/><path d="m168 126.5 1.2.8 1.2-.8" stroke="#000" stroke-miterlimit="10"/><path d="m192.8 113.6 1.3-.7.9.6" stroke="#000" stroke-miterlimit="10"/><path d="m27.138 139.576c.933-.538.216-1.782-.717-1.244-.933.537-1.65-.707-.717-1.245.933-.537.216-1.781-.717-1.244-.933.538-1.65-.706-.717-1.244s.216-1.782-.717-1.244c-.933.537-1.65-.707-.717-1.244.934-.538.217-1.782-.716-1.245-.934.538-1.65-.706-.717-1.244s.216-1.782-.717-1.244-1.65-.707-.717-1.244c.933-.538.216-1.782-.717-1.244-.933.537-1.65-.707-.717-1.245.933-.537.216-1.782-.717-1.244s-1.65-.706-.717-1.244.217-1.782-.717-1.244c-.933.537-1.65-.707-.716-1.245.933-.537.216-1.781-.717-1.244-.933.538-1.65-.706-.717-1.244s.216-1.782-.717-1.244c-.933.537-1.65-.707-.717-1.244" stroke="#7f7f7f"/></g><text font-family="sans-serif" font-size="17" x="213.8" y="135.9">C</text><text font-family="sans-serif" font-size="17" x="225.7" y="135.9">H</text><text font-family="sans-serif" font-size="11" x="237.5" y="142.8">3</text></svg>
